X:1
T:Abendlied
T: Franz Abt
T:Abendlied
T:CPDL   —   Creative Commons Attribution Non Commercial 3.0
T:CPDL   —   Creative Commons Attribution Non Commercial 3.0
T:CPDL   —   Creative Commons Attribution Non Commercial 3.0
T:CPDL   —   Creative Commons Attribution Non Commercial 3.0
C:Franz Abt
Z:CPDL   —   Creative Commons Attribution Non Commercial 3.0
%%score [ 1 2 ( 3 4 ) ]
L:1/8
Q:1/4=80
M:3/4
K:F
V:1 treble-8 nm="Tenor\n1"
V:2 treble-8 nm="Tenor\n2"
V:3 bass nm="Bass"
V:4 bass 
V:1
"^Langsam"!pp! c2 | (f2 c2) A2 | G4 A2 | B>!<(!=B d2!<)! c2 |!>(! _B2 A!>)!!p!A"^cresc." =BB | %5
w: Der|A- * bend|sinkt, im|dunk- len Ne- bel-|schlei- er ruht still die|
 c2 z c ff | (!>!e2 g2)!p! fd | c3 d/c/ c/=B/ A/B/ | c4!pp! c2 | (f2 c2) A2 | G4 A2 | %11
w: Welt, ruht still die|Welt _ vom _|Mon- den- * schein _ be- *|strahlt; das|glüh'n- * de|A- bend-|
 B>!<(!=B d2!<)! c2 |!>(! B2 A!>)!!pp!A"^cresc." =BB | c2 z!f! c ff |!<(! e3 e f^f!<)! | %15
w: rot be- ginnt zu|fei- ern den Dank zu|Gott, den Dank zu|Gott, wenn es die|
!>(! g4 =f2!>)! | e2 z!f! !>!e !>!f!>!g | !>!a7/2 a/ f>d | g4 c>f |!>(! e4 d2!>)! | c2 z2!pp! c2 | %21
w: Ber- ge|malt, den Dank zu|Gott, wenn es die|Ber- ge, die|Ber- ge|malt, die|
"^dolce" c3!<(! d ef!<)! | fe g2!pp! c2 | c3!<(! d ef!<)! | fe g2"^cresc." c2 | %25
w: Wol- ken schwe- ben|nie- * der und|freu- dig tö- nen|Lie- * der dem|
 !>!a3 !>!g !>!f!>!e | d>f c2 z!ff! c | dc[Q:1/4=76]"^ritard." de fd | a>A A2 z2 | %29
w: Schöp- fer, der im|Him- mel wacht, dem|Schöp- fer, der _ im _|Him- mel wacht.|
"^Solo"!p! =c4 c2 | cagf e>d | c6- | c2"^Tutti"!p! c2 c2 |!<(! c6-!<)! | %34
w: Gu- te|Nacht, _ _ _ gu- te|Nacht,|_ gu- te|Nacht,|
!f!!>(! cag!>)!f!p! !>!e>d | c2 z2!pp! e>e | !fermata!f4 |] %37
w: _ _ _ _ gu- te|Nacht, gu- te|Nacht.|
V:2
!pp! A2 | A4 F2 | F4 F2 | F>!<(!F E2!<)! G2 |!>(! G2 F!>)!!p!A"^cresc." GG | G2 z c =BB | %6
w: Der|A- bend|sinkt, im|dunk- len Ne- bel-|schlei- er ruht still die|Welt, ruht still die|
 (!>!c2 B2)!p! A2 | GE G2 G2 | G4!pp! G2 | A4 F2 | F4 F2 | F>!<(!F E2!<)! G2 | %12
w: Welt _ vom|Mon- den- schein be-|strahlt; das|glüh'n- de|A- bend-|rot be- ginnt zu|
!>(! G2 F!>)!!pp!A"^cresc." GG | G2 z!f! c =BB |!<(! c3 c cc!<)! |!>(! (c2 =B2) d2!>)! | %16
w: fei- ern den Dank zu|Gott, den Dank zu|Gott, wenn es die|Ber- * ge|
 c2 z!f! !>!c !>!c!>!c | !>!c7/2 c/ c>=B | c4 c>d |!>(! c4 =B2!>)! | c2 z2 z2 | z!pp! A A2 A2 | %22
w: malt, den Dank zu|Gott, wenn es die|Ber- ge, die|Ber- ge|malt,|die Wol- ken|
 B4 B2 | AA/A/ A2 A2 | B2 B2"^cresc." c2 | !>!f3 !>!e !>!d!>!c | B>B A2 z!ff! A | BA d^c d2 | %28
w: schwe- ben|nie- der und tö- nen|Lie- der dem|Schöp- fer, der im|Him- mel wacht, dem|Schöp- fer, der _ im|
 e>A A2 z2 |!p! (G2 A2) B2 | (Ac c2) z2 | z2 z2 G>B | A2 z2 z2 |!p!!<(! (G2 A2) B2!<)! | %34
w: Him- mel wacht.|Gu- * te|Nacht, _ _|gu- te|Nacht,|gu- * te|
!f!!>(! Afe!>)!d!p! !>!c>B | A2 z2!pp! B>B | !fermata!A4 |] %37
w: Nacht, _ _ _ gu- te|Nacht, gu- te|Nacht.|
V:3
!pp! C,2 | C,4 C,2 | D,4 D,2 | D,>!<(!G, G,2!<)! E,2 |!>(! C,2 C,!>)!!p!F,"^cresc." G,G, | %5
w: |||||
 G,2 z G, G,G, | (!>!G,2 C,2)!p! C,D, | E,C, E,2 F,2 | E,4!pp! E,2 | F,4 C,2 | D,4 D,2 | %11
w: ||||||
 D,>!<(!G, G,2!<)! E,2 |!>(! C,2 C,!>)!!pp!F,"^cresc." G,G, | G,2 z!f! G, G,G, | %14
w: |||
!<(! G,3 G, F,_E,!<)! |!>(! (=E,2 D,2) G,2!>)! | G,2 z!f! !>!_B, !>!A,!>!B, | !>!A,7/2 A,/ A,>G, | %18
w: ||||
 G,4 A,>A, |!>(! G,4 F,2!>)! | E,2 z2 z2 | z!pp! C, C,2 F,2 | (G,2 E,2) E,2 | F,C,/C,/ C,2 F,2 | %24
w: ||||||
 G,2 E,2"^cresc." C2 | !>!C3 !>!B, !>!A,!>!F, | F,>F, F,2 z!ff! F, | F,F, F,A, A,2 | ^C>A, A,2 z2 | %29
w: |||||
!p! (E,2 F,2) G,2 | (F,2 A,2) z2 | z2 E,2- E,>G, | F,2 z2 z2 |!p!!<(! (E,2 F,2) G,2!<)! | %34
w: ||gu- * te|||
!f!!>(! (F,CB,!>)!A,!p! !>!F,2- | F,2) z2!pp! G,>C, | !fermata!C,4 |] %37
w: Nacht, _ _ _ _|_ gu- te-|Nacht|
V:4
 F,,2 | F,,4 F,,2 | B,,4 A,,2 | G,,>G,, C,2 C,2 | F,,2 F,,F, F,F, | E,2 x E, D,D, | %6
w: ||||||
 (C,2 E,,2) F,,2 | G,,3 G,, G,,G,, | C,4 C,2 | F,,4 F,,2 | B,,4 A,,2 | G,,>G,, C,2 C,2 | %12
w: |Mon- den- schein be-|strahlt; *||||
 F,,2 F,,F, F,F, | E,2 x E, D,D, | C,3 B,, A,,_A,, | G,,4 =B,,2 | C,2 x G, F,E, | F,7/2 F,/ F,>F, | %18
w: ||||||
 E,4 F,>D, | G,4 G,,2 | C,2 x2 x2 | x F,, F,,2 F,,2 | C,4 C,2 | F,,F,,/F,,/ F,,2 F,,2 | %24
w: ||||||
 C,2 C,2 C2 | F,3 C, D,A,, | B,,>D, F,2 x F, | B,,F,, B,,A,, D,F, | A,>A,, A,,2 x2 | C,4 C,2 | %30
w: ||||||
 F,,4 x2 | C,4 C,2 | F,,2 x2 x2 | C,4 C,2 | (F,2 C,)D,A,,B,, | C,4 C,2 | F,,4 |] %37
w: |gu- te|Nacht,|gu- te|Nacht, _ _ _ _|gu- te|Nacht.|

